icon-themes/breeze_svg/cmd/lc_thesaurus.svg

<svg viewBox="0 0 24 24" xmlns="http://www.w3.org/2000/svg"><path d="m6.9375 5-1.9375 5.84375-.0625.15625h1.0625l.3125-1h2.3125l.3125 1h1.0625l-.0625-.15625-1.9375-5.84375zm.53125 1.5625.8125 2.4375h-1.625zm6.53125 6.4375v6h3c1.108 0 2-.892 2-2 0-.8109-.49689-1.498-1.1875-1.8125.10595-.2058.1875-.4392.1875-.6875 0-.831-.669-1.5-1.5-1.5h-1.5zm1 1h1.5c.277 0 .5.223.5.5s-.223.5-.5.5h-1.5zm0 2h2c.554 0 1 .446 1 1s-.446 1-1 1h-2z" fill="#4d4d4d"/><path d="m12 6c-.67449.008-1.35501.13489-2 .375l.375.4375.34375.40625 1.53125 1.875.78125-.625-1.1875-1.4375c1.490761-.0713167 3.005036.5285169 4.03125 1.78125.76425.93293 1.07327 2.06392 1.0625 3.1875h1.0625c.00094-1.34943-.43008-2.72841-1.34375-3.84375-1.03004-1.25742-2.48172-1.96782-3.96875-2.125-.22306-.0236-.46266-.03405-.6875-.03125zm-6 6c-.00365.979023.2161729 1.958132.71875 2.875 1.25599 2.29134 3.81008 3.42986 6.25 3.03125-.001959-.000906-.162613-.288344-.3125-.5625l-.21875-.40625-1.21875-2.21875-.875.5.9375 1.6875c-1.4924073-.209614-2.8739342-1.072839-3.65625-2.5-.4167716-.760349-.5999652-1.597684-.59375-2.40625z" fill="#1d99f3"/></svg>

<svg xmlns="http://www.w3.org/2000/svg" viewBox="0 0 24 24">
 <path 
     style="fill:#4d4d4d" 
     d="M 6.9375 5 L 5 10.84375 L 4.9375 11 L 6 11 L 6.3125 10 L 8.625 10 L 8.9375 11 L 10 11 L 9.9375 10.84375 L 8 5 L 6.9375 5 z M 7.46875 6.5625 L 8.28125 9 L 6.65625 9 L 7.46875 6.5625 z M 14 13 L 14 19 L 17 19 C 18.108 19 19 18.108 19 17 C 19 16.1891 18.50311 15.502 17.8125 15.1875 C 17.91845 14.9817 18 14.7483 18 14.5 C 18 13.669 17.331 13 16.5 13 L 15 13 L 14 13 z M 15 14 L 16.5 14 C 16.777 14 17 14.223 17 14.5 C 17 14.777 16.777 15 16.5 15 L 15 15 L 15 14 z M 15 16 L 17 16 C 17.554 16 18 16.446 18 17 C 18 17.554 17.554 18 17 18 L 15 18 L 15 16 z "
     />
 <path 
     style="fill:#1d99f3" 
     d="M 12 6 C 11.32551 6.008 10.64499 6.13489 10 6.375 L 10.375 6.8125 L 10.71875 7.21875 L 12.25 9.09375 L 13.03125 8.46875 L 11.84375 7.03125 C 13.334511 6.9599333 14.848786 7.5597669 15.875 8.8125 C 16.63925 9.74543 16.94827 10.87642 16.9375 12 L 18 12 C 18.00094 10.65057 17.56992 9.27159 16.65625 8.15625 C 15.62621 6.89883 14.17453 6.18843 12.6875 6.03125 C 12.46444 6.00765 12.22484 5.9972 12 6 z M 6 12 C 5.99635 12.979023 6.2161729 13.958132 6.71875 14.875 C 7.97474 17.16634 10.52883 18.30486 12.96875 17.90625 C 12.966791 17.905344 12.806137 17.617906 12.65625 17.34375 L 12.4375 16.9375 L 11.21875 14.71875 L 10.34375 15.21875 L 11.28125 16.90625 C 9.7888427 16.696636 8.4073158 15.833411 7.625 14.40625 C 7.2082284 13.645901 7.0250348 12.808566 7.03125 12 L 6 12 z "
     />
 </svg>
